!!!COM: Vivaldi, Antonio Lucio
!!!CDT: 1678/03/04-1741/08/28
!!!OPR: 12 Sonatas for Violin and Basso continuo
!!!OTL: Sonata in G major, op. @{OPS}, no. @{ONM} (@{SCT})
!!!OPS: 2
!!!ONM: 8
!!!OMV: 1. Preludio
!!!SCT: RV 23
!!!SCA: Antonio Vivaldi: Thematisch-systematisches Verzeichnis seiner Werke (Ryom-Verzeichnis)
!!!OMD: Largo
!!!key: G
**kern	**fb	**kern
*part2	*	*part1
*staff2	*	*staff1
*ICklav	*	*ICstr
*Icemba	*	*Ivioln
*I"Basso continuo	*	*I"Violino
*I'bc	*	*I'v
*>[A,A,B,B1,B,B2]	*>[A,A,B,B1,B,B2]	*>[A,A,B,B1,B,B2]
*>norep[A,B,B2]	*>norep[A,B,B2]	*>norep[A,B,B2]
*>A	*>A	*>A
*clefF4	*	*clefG2
*k[f#]	*	*k[f#]
*G:	*	*G:
*M4/4	*	*M4/4
*met(c)	*	*met(c)
*MM48	*	*MM48
=1	=1	=1
8G/L	.	8gg\L
8GG/J	.	16ff#y\L
.	.	16ee\JJ
8FF#y/L	6	8dd\L
8F#y/J	.	8cc\J
8G/L	.	16b/LL
.	.	16a/J
8GG/J	.	8g/J
4r	.	16r
.	.	16dd\LL
.	.	16ee\
.	.	16ff#y\JJ
=2	=2	=2
8B\L	6	8gg\L
8BB\J	.	16aa\L
.	.	16bb\JJ
8C\L	6	8aa\L
8c\J	5	8gg\J
8d\L	.	16ff#y\LL
.	.	16ee\J
8D\J	.	8dd\J
4r	.	8r
.	.	16dd\LL
.	.	16ee\JJ
=3	=3	=3
16d\LL	n	8ffn\L
16c\	.	.
16B\	.	8g\J
16A\JJ	.	.
8G\L	.	8g/L
8Fn\J	.	16a/L
.	.	16b/JJ
4E\	6	8cc/L
.	.	8c/J
4r	.	8c/L
.	.	16gg\L
.	.	16aa\JJ
!!LO:LB:g=original
=4	=4	=4
16G\LL	.	8bb-X\L
16Fn\	.	.
16E\	.	8cc\J
16D\JJ	.	.
8C/L	.	8cc\L
8BB-X/J	.	16dd\L
.	.	16ee\JJ
4AA/	6nr	8ffn\L
.	.	8fn\
4r	.	8f\
.	.	8cc\J
=5	=5	=5
8A\L	6nr	8ffn\L
8G\J	.	16gg\L
.	.	16aa\JJ
[4Fn\	6	8dd\L
.	5	8cc\J
4F\]	4 2	8b/L
.	.	16a/L
.	.	16g/JJ
8E\L	6	[4cc\
16A\L	.	.
16c\JJ	.	.
=6	=6	=6
8F#X\L	5	4cc\]
16E\L	.	.
16D\JJ	.	.
2G\	5	8b\L
.	.	16ee\L
.	.	16gg\JJ
.	4#| 2	8cc#X\L
.	.	16b\L
.	.	16a\JJ
8F#y\L	6	[4dd\
16E\L	.	.
16D\JJ	.	.
=7	=7	=7
8G\L	6 5	16dd\LL]
.	.	16ff#y\
8E\J	.	16ee\
.	.	(32ff#y\L
.	.	32dd\JJJ)
8A\L	5 4	8.cc#X\Lt
8AA\J	#	.
.	.	16dd\Jk
4D\	.	4dd\
4r	.	16r
.	.	16dd\LL
.	.	16ee\
.	.	16ff#y\JJ
!!LO:LB:g=original
=8:|!|:	=8:|!|:	=8:|!|:
*>B	*>B	*>B
8B\L	6	8gg\L
8G\	7nr	8ffn\
8GG\	.	8ff\
8B\J	5nr	8ff\J
8c\L	5 4nr	(8ff\LT
8C\J	3	8ee\J)
4r	.	16r
.	.	16ee\LL
.	.	16ff#y\
.	.	16gg\JJ
=9	=9	=9
8c#X\L	6	8aa\L
8A\	7	8gg\
8AA\	.	8gg\
8c#y\J	5	8gg\J
8d\L	5 4	(8gg\LT
8D\J	3	8ff#y\J)
4r	.	8r
.	.	8dd\
=10	=10	=10
8F#y\L	5	(16aa\LL
.	.	16ccn\
8A\J	.	16b\
.	.	16cc\JJ)
8F#y\L	.	(16aa\LL
.	.	16cc\
8D\J	.	16b\
.	.	16cc\JJ)
8G/L	.	8b/L
8GG/J	.	16a/L
.	.	16g/JJ
8r	.	8ee\L
8G\	6	8ee\J
=11	=11	=11
4F#y\	7	(16ee\LL
.	.	16ff#y\)
.	.	(16gg\
.	.	16aa\JJ)
16B\LL	.	8dd\L
16A\	.	.
16G\	.	8dd\J
16F#y\JJ	.	.
4E\	7	16gg\LL
.	.	(16cc\
.	6	16b\
.	.	16cc\JJ)
8r	.	8aa\L
8A\	.	8cc\J
!!LO:LB:g=original
=12	=12	=12
4D\	7	8cc\LT
.	6	8b\J
16G\LL	.	8b\L
16F#y\	.	.
16E\	.	8b\J
16D\JJ	.	.
4C/	7	16ee\LL
.	.	(16cc\
.	.	16b\
.	.	16a\JJ)
4C#X/	6	8ee\L
.	5	8g\J
=13	=13	=13
4D\	5 4	(8g/LT
.	X 3	8f#y/J)
8r	.	8r
8BB/	6	8dd\
8C/L	.	(16ee\LL
.	.	16a\)
8GG/J	.	(16b\
.	.	16g\JJ)
8D/L	4	8.f#y/Lt
8DD/J	3	.
.	.	16g/Jk
=14	=14	=14
4GG/	.	8g/L
.	.	8b/J
8r	.	[4ee\
8G\	6	.
4F#y\	7	16ee\LL]
.	.	(16cc\
.	.	16b\
.	.	16a\JJ)
16B\LL	.	8dd\L
16A\	.	.
16G\	.	8dd\J
16F#y\JJ	.	.
=15	=15	=15
4E\	7	(16dd\LL
.	.	16ee\)
.	.	(16ff#y\
.	.	16gg\JJ)
8r	.	8cc\L
8A\	.	8cc\J
4D\	7	16cc/LL
.	.	(16a/
.	.	16g/
.	.	16f#y/JJ)
16G\LL	.	8b\L
16F#y\	.	.
16E\	.	8b\J
16D\JJ	.	.
!!LO:LB:g=original
=16	=16	=16
4C/	7	(16b\LL
.	.	16cc\)
.	.	(16dd\
.	.	16ee\JJ)
4C#X/	6	8a/L
.	5	8g/J
16D\LL	.	16f#y/LL
16E\	.	16e/J
16F#y\	.	8d/J
16G\JJ	.	.
8A\L	.	8r
8D\J	7	8cc\
=17	=17	=17
[2G\	5 -	8b-X/L
.	6-r	16a/L
.	.	16g/JJ
.	.	8ee-X\L
.	.	16ff\L
.	.	16gg\JJ
4G\]	6 4#| 2	4cc#X\
8F#y\L	6	8dd\L
8D\J	7nr	8ccn\J
=18	=18	=18
*>B1	*>B1	*>B1
8G\L	.	8bn/L
8C\J	6 5	16a/L
.	.	16g/JJ
8D/L	5 4	8.f#X/Lt
8DD/J	#	.
.	.	16g/Jk
4GG/	.	4g/
4r	.	16r
.	.	16dd\LL
.	.	16ee\
.	.	16ff#y\JJ
=19:|!	=19:|!	=19:|!
*>B2	*>B2	*>B2
8G\L	.	8bn/L
8C\J	6 5	16a/L
.	.	16g/JJ
8D/L	5 4	8.f#X/Lt
8DD/J	#	.
.	.	16g/Jk
4GG/	.	4g/
4r	.	4r
==	==	==
*-	*-	*-
!!!SMS: RV 23 / Estienne Roger, Amsterdam [facs.]
!!!ENC: Fran Bennion; rev. E Correia (4/21)
!!!END: 2004/12/01
!!!ONB: Converted from MuseData with musedata2hum on Sat May 11 12:07:52 2024
!!!YEM: (C) 2004, 2004 Center for Computer Assisted Research in the Humanities.
!!!system-decoration: [(s1,s2)]
!!!URL-info: https://wiki.ccarh.org/wiki/MuseData:_Antonio_Vivaldi#Op._2:_Sonate_a_violino_e_basso_per_il_cembalo
!!!URL-pdf: https://pdf.musedata.org/vivaldi-op02-no08.pdf#page=1 MuseData edition
!!!URL-pdf: http://conquest.imslp.info/files/imglnks/usimg/b/b7/IMSLP99075-PMLP183164-Vivaldi_-_Sonatas_Op2.pdf#page=28 Estienne Roger Amsterdam: Estienne Roger, No.2, n.d.[1711].
!!!URL-youtube: https://www.youtube.com/watch?v=SiijZmW9jKM&t=2910s L'Arte dell'Arco
!!!title: @{OTL}, mov. @{OMV}
!!!filter-chint: chint -mid
!!!EEV: 2024/05/11
!!!source-file: https://bitbucket.org/musedata/vivaldi/src/master/roger/op2/no08/stage2/01/01
!!!source-file: https://bitbucket.org/musedata/vivaldi/src/master/roger/op2/no08/stage2/01/02
